X: 34164
T: Reel Jacqueline
R: reel
M: 4/4
K: Aminor
EAGF E2C2|A,4 C2E2|:A2c2 e2a2|fedf ecAc|B2Bd d2e2|(3BBB Bd edcB|
A2 (3cBc e2 a2|fedf ecAc|eagf edcB|1 A2E2 F2E2:|2 A2G2 A2B2||
c2ce agfe|d2Bd g2ge|c2Ac fedc|B2B2 e2a2|
A2FA cBAc|BAAB edcB|c2c2 dcd2|e2ef edcd|
e2ce agfe|d2Bd g2ge|c2Ac fedc|B2B2 e2a2|
A2FA cBAc|BAAB edcd|edce dcBc|A4- A2E2||

